X:1
T:Gifts We Bring
T:Gifts We Bring
T:John Jackson Hood
T:Ophelia Guyon Browning, 1889
T:Public Domain Courtesy of the Cyber Hymnal™
C:John Jackson Hood
Z:Public Domain
Z:Courtesy of the Cyber Hymnal™
%%score ( 1 2 ) ( 3 4 )
L:1/8
Q:1/4=80
M:2/4
K:Bb
V:1 treble 
V:2 treble 
V:3 bass 
V:4 bass 
V:1
 [DB][DF] [Fd]2 | [Dc][DF] [Fd]2 | [Ae][Fc] [FA][EF] | [EG][DF] [B,D]2 | D[GB] [^FA][DF] | %5
w: 1.~Gifts we bring|to our king,|Ev- ery heart an|of- fer- ing—|Lov- ing deeds for|
w: 2.~Praise we bring|to our king,|And of God’s great|love- gift sing,|While the sto- ry|
w: 3.~Gifts we bring|to our king,|While the mer- ry|chime- bells ring,|Kind words from our|
 [DG][GB] [^FA]2 | [Ac][Ae] [Bd][FB] | [FA][Fc] [FB]2 ||"^Refrain" [Ae]>[Ad] [Ac][Ad] | %9
w: Je- sus’ sake|Are the best gifts|we can make:|For our gifts the|
w: we re- peat|Of the Christ- mas|Babe so sweet!|For our praise the|
w: lips shall fall,|Cheer- ful smiles we’ll|give to all:|For our gifts the|
 [Ac][FB] ([FA][Ac]) | [Ae]>[Ad] [Ac][GB] | [FA][=EG] (F_E) | [B,D][DF] [DB][DF] | [B,D][DF] (BF) | %14
w: Lord hath need; *|He will bless each|lov- ing deed, *|He will bless each|lov- ing deed, *|
w: Lord hath need; *|When we love in|truth and deed, *|When we love in|truth and deed *|
w: Lord hath need; *|He will bless each|kind- ly deed, *|He will bless each|kind- ly deed, *|
 [EG][Ge] [Fd][FB] | [FA][Ec] [DB]2 |] %16
w: And the child- ren’s|off- ’ring heed.|
w: Child- ren’s prais- es|He will heed.|
w: And the words of|child- ren heed.|
V:2
 x4 | x4 | x4 | x4 | D x3 | x4 | x4 | x4 || x4 | x4 | x4 | x2 C2 | x4 | x2 D2 | x4 | x4 |] %16
V:3
 [B,,B,][B,,B,] [B,,B,]2 | [B,,B,][B,,B,] [B,,B,]2 | [F,C][F,A,] [F,C][F,A,] | %3
 [B,,B,][B,,B,] [B,,F,]2 | [G,B,][G,D] [D,D][D,A,] | [G,B,][G,D] [D,D]2 | [F,C][F,C] B,[D,B,] | %7
 [F,C][F,E] [B,,D]2 || [F,C]>[F,F] [F,E][F,F] | [F,E][F,D] (CF) | [F,C]>[F,C] [F,C][F,C] | %11
 [C,C][C,B,] [F,A,]2 | [B,,F,][B,,B,] [B,,B,][B,,B,] | [B,,F,][B,,B,] [B,,B,]2 | %14
 [E,B,][E,B,] [F,B,][F,D] | [F,C][F,A,] [B,,B,]2 |] %16
V:4
 x4 | x4 | x4 | x4 | x4 | x4 | x2 B, x | x4 || x4 | x2 F,2 | x4 | x4 | x4 | x4 | x4 | x4 |] %16

